illustrations/empty-state/empty-workspaces-md.svg

<svg width="144" height="144" viewBox="0 0 144 144" fill="none" xmlns="http://www.w3.org/2000/svg">
    <rect width="144" height="144" rx="72" fill="#E7E4F2"/>
    <path d="M72 73L71.9998 73.0824C72.4924 73.028 72.9929 73 73.5 73C80.9558 73 87 79.0442 87 86.5C87 93.7884 81.2242 99.7279 74 99.9909V100H33C24.1634 100 17 92.8366 17 84C17 75.1634 24.1634 68 33 68C34.235 68 35.4373 68.1399 36.5919 68.4048C38.623 60.6896 45.6471 55 54 55C63.9411 55 72 63.0589 72 73Z" fill="white"/>
    <path d="M41 100H74V99.9909C81.2242 99.7279 87 93.7884 87 86.5C87 79.0442 80.9558 73 73.5 73C72.9929 73 72.4924 73.028 71.9998 73.0824L72 73C72 63.0589 63.9411 55 54 55C45.6471 55 38.623 60.6896 36.5919 68.4048C35.4373 68.1399 34.235 68 33 68C24.1634 68 17 75.1634 17 84C17 91.8106 22.5967 98.3141 29.9985 99.7189" stroke="#171321" stroke-width="2" stroke-linecap="square"/>
    <circle cx="52" cy="99" r="14" fill="#D0C5E2" stroke="#171321" stroke-width="2" stroke-linecap="square"/>
    <path fill-rule="evenodd" clip-rule="evenodd" d="M54.4565 94.0932L54.1976 95.0592L51.7781 104.089L51.5193 105.055L49.5874 104.537L49.8462 103.571L52.2658 94.5415L52.5246 93.5756L54.4565 94.0932ZM48.5109 102.112L47.8038 101.405L45.7142 99.3157L47.8038 97.2261L48.5109 96.519L47.0967 95.1048L46.3896 95.8119L43.5928 98.6086L42.8857 99.3157L43.5928 100.023L46.3896 102.82L47.0967 103.527L48.5109 102.112ZM56.4702 101.405L55.7631 102.112L57.1773 103.527L57.8844 102.82L60.6812 100.023L61.3883 99.3158L60.6812 98.6086L57.8844 95.8119L57.1773 95.1048L55.7631 96.519L56.4702 97.2261L58.5598 99.3158L56.4702 101.405Z" fill="#171321"/>
    <path d="M96 70.5C108.426 70.5 118.5 60.4264 118.5 48C118.5 35.5736 108.426 25.5 96 25.5C83.5736 25.5 73.5 35.5736 73.5 48V70.5H96Z" fill="white" stroke="#171321" stroke-width="2" stroke-linecap="square"/>
    <circle cx="96" cy="48" r="15" fill="#6FDAC9"/>
    <path fill-rule="evenodd" clip-rule="evenodd" d="M97 42V41H95V42V47L90 47L89 47V49H90H95V54V55H97V54V49H102H103V47H102L97 47V42Z" fill="#171321"/>
    <path d="M125 48C125 44.1917 124.25 40.4206 122.793 36.9022C121.335 33.3837 119.199 30.1868 116.506 27.4939C113.813 24.801 110.616 22.6649 107.098 21.2075C103.579 19.7501 99.8083 19 96 19" stroke="#171321" stroke-width="2" stroke-linecap="square"/>
    <circle cx="75" cy="70" r="6" fill="white" stroke="#171321" stroke-width="2" stroke-linecap="square"/>
</svg>

<svg width="144" height="144" fill="none" viewBox="0 0 144 144" xmlns="http://www.w3.org/2000/svg"><rect width="144" height="144" rx="72" fill="var(--gl-illustration-base-fill-color, #e7e4f2ff)"/><path d="M72 73v.082c.492-.054.993-.082 1.5-.082C80.956 73 87 79.044 87 86.5c0 7.288-5.776 13.228-13 13.49v.01H33c-8.837 0-16-7.163-16-16s7.163-16 16-16c1.235 0 2.437.14 3.592.405C38.623 60.69 45.647 55 54 55c9.941 0 18 8.059 18 18Z" fill="var(--gl-illustration-fill-color-default, #ffffff)"/><path d="M41 100h33v-.01c7.224-.262 13-6.202 13-13.49C87 79.044 80.956 73 73.5 73c-.507 0-1.008.028-1.5.082V73c0-9.941-8.059-18-18-18-8.353 0-15.377 5.69-17.408 13.405A16.047 16.047 0 0 0 33 68c-8.837 0-16 7.163-16 16 0 7.81 5.597 14.314 12.998 15.719" stroke="var(--gl-illustration-stroke-color-default, #171321ff)" stroke-width="var(--gl-illustration-stroke-width-default, 2)" stroke-linecap="square"/><circle cx="52" cy="99" r="14" fill="var(--gl-illustration-accent-fill-color-strong, #aea5d6ff)" stroke="var(--gl-illustration-stroke-color-default, #171321ff)" stroke-width="var(--gl-illustration-stroke-width-default, 2)" stroke-linecap="square"/><g stroke="var(--gl-illustration-stroke-color-default, #171321ff)" stroke-width="var(--gl-illustration-stroke-width-default, 2)" stroke-linecap="square"><path d="M47.097 102.112 44.3 99.316l2.797-2.797M50.812 103.83l2.42-9.03M57.177 102.112l2.797-2.796-2.797-2.797"/></g><path d="M96 70.5c12.426 0 22.5-10.074 22.5-22.5S108.426 25.5 96 25.5 73.5 35.574 73.5 48v22.5H96Z" fill="var(--gl-illustration-fill-color-default, #ffffff)" stroke="var(--gl-illustration-stroke-color-default, #171321ff)" stroke-width="var(--gl-illustration-stroke-width-default, 2)" stroke-linecap="square"/><circle cx="96" cy="48" r="15" fill="var(--gl-illustration-status-fill-color-success, #6fdac9ff)"/><path d="M102 48h-6m-6 0h6m0 0v-6m0 6v6M125 48a29.007 29.007 0 0 0-8.494-20.506A29.005 29.005 0 0 0 96 19" stroke="var(--gl-illustration-stroke-color-default, #171321ff)" stroke-width="var(--gl-illustration-stroke-width-default, 2)" stroke-linecap="square"/><circle cx="75" cy="70" r="6" fill="var(--gl-illustration-fill-color-default, #ffffff)" stroke="var(--gl-illustration-stroke-color-default, #171321ff)" stroke-width="var(--gl-illustration-stroke-width-default, 2)" stroke-linecap="square"/></svg>
